SF_Symbols/person.fill.badge.minus.svg

<?xml version="1.0" encoding="UTF-8"?>
<svg xmlns="http://www.w3.org/2000/svg" xmlns:xlink="http://www.w3.org/1999/xlink" width="24" height="24" viewBox="0 0 24 24" version="1.1">
<g id="surface1">
<path style=" stroke:none;fill-rule:nonzero;fill:rgb(100%,100%,100%);fill-opacity:1;" d="M 14.667969 11.574219 C 13.777344 11.574219 12.949219 11.671875 12.175781 11.863281 C 11.40625 12.050781 10.703125 12.308594 10.0625 12.636719 C 10.8125 13.253906 11.410156 14.011719 11.855469 14.90625 C 12.304688 15.800781 12.53125 16.769531 12.53125 17.8125 C 12.53125 18.355469 12.46875 18.867188 12.34375 19.355469 L 21.207031 19.355469 C 22.027344 19.355469 22.601562 19.234375 22.925781 19 C 23.261719 18.769531 23.425781 18.425781 23.425781 17.96875 C 23.425781 17.300781 23.226562 16.597656 22.824219 15.855469 C 22.421875 15.109375 21.835938 14.417969 21.074219 13.769531 C 20.308594 13.117188 19.386719 12.589844 18.300781 12.1875 C 17.226562 11.777344 16.015625 11.574219 14.667969 11.574219 Z M 14.667969 9.707031 C 15.410156 9.707031 16.097656 9.507812 16.730469 9.105469 C 17.359375 8.695312 17.867188 8.140625 18.25 7.449219 C 18.640625 6.753906 18.832031 5.972656 18.832031 5.105469 C 18.832031 4.25 18.640625 3.484375 18.25 2.8125 C 17.867188 2.132812 17.359375 1.597656 16.730469 1.207031 C 16.097656 0.820312 15.410156 0.625 14.667969 0.625 C 13.921875 0.625 13.234375 0.824219 12.605469 1.21875 C 11.972656 1.613281 11.460938 2.152344 11.074219 2.832031 C 10.691406 3.515625 10.5 4.277344 10.5 5.125 C 10.5 5.984375 10.691406 6.765625 11.074219 7.457031 C 11.460938 8.144531 11.972656 8.695312 12.605469 9.105469 C 13.234375 9.507812 13.921875 9.707031 14.667969 9.707031 Z M 5.800781 23.105469 C 6.515625 23.105469 7.195312 22.964844 7.832031 22.6875 C 8.472656 22.410156 9.035156 22.027344 9.519531 21.542969 C 10.015625 21.054688 10.398438 20.492188 10.675781 19.855469 C 10.953125 19.214844 11.09375 18.535156 11.09375 17.8125 C 11.09375 17.082031 10.953125 16.398438 10.675781 15.761719 C 10.40625 15.121094 10.027344 14.558594 9.542969 14.074219 C 9.054688 13.585938 8.492188 13.207031 7.855469 12.9375 C 7.214844 12.660156 6.53125 12.519531 5.800781 12.519531 C 5.078125 12.519531 4.398438 12.660156 3.761719 12.9375 C 3.121094 13.207031 2.558594 13.589844 2.074219 14.082031 C 1.585938 14.570312 1.203125 15.132812 0.925781 15.769531 C 0.648438 16.402344 0.511719 17.082031 0.511719 17.8125 C 0.511719 18.542969 0.648438 19.226562 0.925781 19.863281 C 1.203125 20.503906 1.585938 21.066406 2.074219 21.550781 C 2.558594 22.039062 3.121094 22.417969 3.761719 22.6875 C 4.398438 22.964844 5.078125 23.105469 5.800781 23.105469 Z M 3.125 18.449219 C 2.953125 18.449219 2.800781 18.382812 2.675781 18.25 C 2.550781 18.125 2.488281 17.980469 2.488281 17.8125 C 2.488281 17.644531 2.550781 17.496094 2.675781 17.363281 C 2.800781 17.238281 2.953125 17.175781 3.125 17.175781 L 8.480469 17.175781 C 8.652344 17.175781 8.800781 17.238281 8.925781 17.363281 C 9.058594 17.496094 9.125 17.644531 9.125 17.8125 C 9.125 17.980469 9.058594 18.125 8.925781 18.25 C 8.800781 18.382812 8.652344 18.449219 8.480469 18.449219 Z M 3.125 18.449219 "/>
</g>
</svg>

<svg xmlns="http://www.w3.org/2000/svg" width="24" height="24"><path style="stroke:none;fill-rule:nonzero;fill:#fff;fill-opacity:1" d="M14.668 11.574c-.89 0-1.719.098-2.492.29a9.723 9.723 0 0 0-2.114.773 6.899 6.899 0 0 1 1.793 2.27c.45.894.676 1.863.676 2.905 0 .543-.062 1.055-.187 1.543h8.863c.82 0 1.395-.12 1.719-.355.336-.23.5-.574.5-1.031 0-.668-.2-1.371-.602-2.114-.402-.746-.988-1.437-1.75-2.085-.765-.653-1.687-1.18-2.773-1.582-1.074-.41-2.285-.614-3.633-.614Zm0-1.867c.742 0 1.43-.2 2.062-.602a4.615 4.615 0 0 0 1.52-1.656c.39-.695.582-1.476.582-2.344 0-.855-.191-1.62-.582-2.293a4.343 4.343 0 0 0-1.52-1.605 3.894 3.894 0 0 0-2.062-.582c-.746 0-1.434.2-2.063.594a4.523 4.523 0 0 0-1.53 1.613c-.384.684-.575 1.445-.575 2.293 0 .86.191 1.64.574 2.332a4.626 4.626 0 0 0 1.531 1.648 3.75 3.75 0 0 0 2.063.602ZM5.801 23.105c.715 0 1.394-.14 2.031-.418a5.4 5.4 0 0 0 1.688-1.144 5.326 5.326 0 0 0 1.156-1.688c.277-.64.418-1.32.418-2.043 0-.73-.14-1.414-.418-2.05a5.196 5.196 0 0 0-1.133-1.688 5.313 5.313 0 0 0-3.742-1.554c-.723 0-1.403.14-2.04.418-.64.269-1.202.652-1.687 1.144A5.48 5.48 0 0 0 .926 15.77a5.03 5.03 0 0 0-.414 2.043c0 .73.136 1.414.414 2.05.277.64.66 1.203 1.148 1.688.48.488 1.055.875 1.688 1.137.644.28 1.34.421 2.039.417ZM3.125 18.45a.595.595 0 0 1-.45-.199.593.593 0 0 1-.187-.438.637.637 0 0 1 .637-.636H8.48c.172 0 .32.062.446.187.133.133.199.282.199.45a.584.584 0 0 1-.2.437.58.58 0 0 1-.445.2Zm0 0"/></svg>
